X: 1
T: Julia Delaney's reel
O: trad. Ireland
R: reel
S: Fiddle Hell Online 2021-04-15  Andy & Dave Reiner
N: basic version for workshop "Teaching How To Make Irish Fiddle Tunes Come Alive"
Z: 2021 John Chambers <jc:trillian.mit.edu>
M: C|
L: 1/8
K: Dm
|:\
dcAG F2DF | E2CE FDDA | dcAG F2DF | Add^c defe |
dcAG F2DF | E2CE FDDA | dcAG F2DF | Add^c [1 d2 A=c :|[2 d3e ||
|:\
f2de fagf | ecgc acge | fede fagf | edcB Adde |
f2de fagf | ecgc acge | fedf edcd | Add^c [1 d3e :|[2 d4 |]
